packages/ffe-icons/icons/open/400/sm/tv_options_edit_channels.svg

<svg xmlns="http://www.w3.org/2000/svg" height="20" viewBox="0 -960 960 960" width="20"><path d="M276-396q-15.3 0-25.65-10.29Q240-416.58 240-431.79t10.35-25.71Q260.7-468 276-468h120q15.3 0 25.65 10.29Q432-447.42 432-432.21t-10.35 25.71Q411.3-396 396-396H276Zm0-150q-15.3 0-25.65-10.29Q240-566.58 240-581.79t10.35-25.71Q260.7-618 276-618h408q15.3 0 25.65 10.29Q720-597.42 720-582.21t-10.35 25.71Q699.3-546 684-546H276Zm0-150q-15.3 0-25.65-10.29Q240-716.58 240-731.79t10.35-25.71Q260.7-768 276-768h408q15.3 0 25.65 10.29Q720-747.42 720-732.21t-10.35 25.71Q699.3-696 684-696H276Zm366.8 441q-7.2 0-13.5-3t-11.3-8L509-375q-11-11-11-25t11-25q11-11 25.67-11 14.66 0 25.33 11l83 83 193-193q10.67-11 25.33-10.5 14.67.5 26.15 11.5Q898-523 898-508.5T887-483L669-266q-5 5-12 8t-14.2 3ZM132.21-696q-15.21 0-25.71-10.29T96-731.79q0-15.21 10.29-25.71t25.5-10.5q15.21 0 25.71 10.29t10.5 25.5q0 15.21-10.29 25.71t-25.5 10.5Zm0 150q-15.21 0-25.71-10.29T96-581.79q0-15.21 10.29-25.71t25.5-10.5q15.21 0 25.71 10.29t10.5 25.5q0 15.21-10.29 25.71t-25.5 10.5Zm0 150q-15.21 0-25.71-10.29T96-431.79q0-15.21 10.29-25.71t25.5-10.5q15.21 0 25.71 10.29t10.5 25.5q0 15.21-10.29 25.71t-25.5 10.5Z"/></svg>

<svg xmlns="http://www.w3.org/2000/svg" height="20" viewBox="0 -960 960 960" width="20"><path d="M276-396q-15.3 0-25.65-10.289-10.35-10.29-10.35-25.5Q240-447 250.35-457.5 260.7-468 276-468h120q15.3 0 25.65 10.289 10.35 10.29 10.35 25.5Q432-417 421.65-406.5 411.3-396 396-396H276Zm0-150q-15.3 0-25.65-10.289-10.35-10.29-10.35-25.5Q240-597 250.35-607.5 260.7-618 276-618h408q15.3 0 25.65 10.289 10.35 10.29 10.35 25.5Q720-567 709.65-556.5 699.3-546 684-546H276Zm0-150q-15.3 0-25.65-10.289-10.35-10.29-10.35-25.5Q240-747 250.35-757.5 260.7-768 276-768h408q15.3 0 25.65 10.289 10.35 10.29 10.35 25.5Q720-717 709.65-706.5 699.3-696 684-696H276Zm366.8 441q-7.2 0-13.5-3t-11.3-8L509-375q-11-11-11-25t11-25q11-11 25.667-11 14.666 0 25.333 11l83 83 193-193q10.667-11 25.333-10.5Q876-545 887.478-534 898-523 898-508.5T887-483L669-266q-5 5-12 8t-14.2 3ZM132.211-696Q117-696 106.5-706.289q-10.5-10.29-10.5-25.5Q96-747 106.289-757.5q10.29-10.5 25.5-10.5Q147-768 157.5-757.711q10.5 10.29 10.5 25.5Q168-717 157.711-706.5q-10.29 10.5-25.5 10.5Zm0 150Q117-546 106.5-556.289q-10.5-10.29-10.5-25.5Q96-597 106.289-607.5q10.29-10.5 25.5-10.5Q147-618 157.5-607.711q10.5 10.29 10.5 25.5Q168-567 157.711-556.5q-10.29 10.5-25.5 10.5Zm0 150Q117-396 106.5-406.289q-10.5-10.29-10.5-25.5Q96-447 106.289-457.5q10.29-10.5 25.5-10.5Q147-468 157.5-457.711q10.5 10.29 10.5 25.5Q168-417 157.711-406.5q-10.29 10.5-25.5 10.5Z"/></svg>
